!!!OTL: 45. Skotshne
!!!Genre:	Skotshne
!!!Mode:	Minor
!!!Listening/dance:	listening
!!!:	*G:frey
!!!One_Mode:	no
**kern
*I"P1
*clefG2
*k[b-e-]
*g:
*M2/4
*>A
=1
16gLL
16G
16B-
16dJJ
16gLL
16b-
16dd
16ccJJ
=2
8b-L
16b-L
16b-JJ
16b-LL
16b-
16b-
16b-JJ
=3
((16qqb-/LL
16qqcc/JJ
16b-LL)
16aJ)
8gJ
8r
8g
=4
(8qg/
8ccL)
32b-LL
32cc
32b-
32aJJJ
8b-
8r
=5
(16qqg/LL
16qqa/JJ
16gLL)
16G
16B-
16dJJ
16gLL
16b-
16dd
16ccJJ
=6
8b-L
16b-L
16b-JJ
16b-LL
16b-
16b-
16b-JJ
=7
(16b-LL
16f)
(16f
16b-JJ)
(8qcc/
16b-LL)
16a-X
(8qb-/
16a-)
16gJJ
*>A1
=8
(16qqg/LL
16qqan/JJ
4g)
8r
(16gLL
16aJJ)
*>A2
=9:|!
4.g
8r
*>bM
*G:frey
!LO:TX:a:i:t=G-freygish
=10||
*>B
(8qa-X/
[4gt)
(16gLL]
16f
16en
16fJJ)
=11
(8qa-X/
[4gt)
(16gLL]
16f
16en
16fJJ)
=12
((8qa-X/
16gLL)
16f
16en
16fJJ)
(16gLL
16f
16e
16fJJ)
=13
4.g
8g
=14
16gLL
(8qbn/
16a-X)
16g
16fJJ
(8qa-/
4g)
=15
8gL
8bnJ
(8qdd/
8ccL)
8bJ
=16
16gLL
(8qbn/
16a-X)
16g
16fJJ
(8qa-/
4g)
=17
8r
8bnL
8qdd/
8cc
8bJ
*>eM
*g:
!LO:TX:a:i:t=G-minor
=18
8fL
16gL
16anJJ
16b-XLL
16cc
16dd
16ee-JJ
=19
16ffLL
16dd
16b-
16ddJJ
8.ccL
16b-Jk
=20
(16b-LL
16f)
(16f
16b-JJ)
(16b-LL
16a-X)
(16a-
16gJJ)
=
(16qqg/LL
16qqan/JJ
4.g)
=21
8r
=22!|:
*>C
!LO:TX:a:i:t=Bb-major
16b-LL
16ccJJ
4dd
8dd
=23
16ddLL
16ee-
16dd
16ee-JJ
(8.ddL
16ccJk)
=24
16ccLL
16dd
16cc
16ddJJ
((16qqcc/LL
16qqdd/JJ
8.ccL)
16b-Jk)
*>C1
=25
16b-LL
16a
16g
16fJJ
16e-LL
16d
16c
16B-JJ
*>C2
=26:|!
!LO:TX:a:i:t=G-minor
8.b-L
16aJk
16b-LL
16a
16g
16f#XJJ
=27!|:
*>D
[4g
16gLL]
16b-
16dd
16ccJJ
=28
4..b-
16b-
=29
(8qcc/
16b-LL)
16aJ
8gJ
8r
8g
=30
(8qg/
8ccL)
32b-LL
32cc
32b-
32aJJJ
4b-
=31
[4g
16gLL]
16b-
16dd
16ccJJ
=32
4.b-
8b-
=33
(16b-LL
16f)
(16f
16b-JJ)
(16b-LL
16a-X)
(16a-
16gJJ)
=34
4.g
8r
=:|!
*-
